resources/haticons/SVG/hvac.svg

<!-- Generated by IcoMoon.io -->
<svg version="1.1" xmlns="http://www.w3.org/2000/svg" width="24" height="24" viewBox="0 0 24 24">
<title>hvac</title>
<path d="M12 15.984q0.75 0 1.43-0.258t1.195-0.727h-5.25q0.516 0.469 1.195 0.727t1.43 0.258zM8.578 14.016h6.891q0.375-0.703 0.469-1.5h-7.875q0.094 0.797 0.516 1.5zM12 8.016q-0.75 0-1.43 0.258t-1.195 0.727h5.25q-0.516-0.469-1.195-0.727t-1.43-0.258zM8.578 9.984q-0.422 0.703-0.516 1.5h7.875q-0.094-0.797-0.516-1.5h-6.844zM18.984 3h-13.969q-0.844 0-1.43 0.586t-0.586 1.43v13.969q0 0.844 0.586 1.43t1.43 0.586h13.969q0.844 0 1.43-0.586t0.586-1.43v-13.969q0-0.844-0.586-1.43t-1.43-0.586zM12 18q-1.641 0-3-0.82t-2.18-2.18-0.82-3 0.82-3 2.18-2.18 3-0.82 3 0.82 2.18 2.18 0.82 3-0.82 3-2.18 2.18-3 0.82z"></path>
</svg>

<svg xmlns="http://www.w3.org/2000/svg" width="24" height="24"><path d="M12 15.984q.75 0 1.43-.258t1.195-.727h-5.25q.516.469 1.195.727t1.43.258zm-3.422-1.968h6.891q.375-.703.469-1.5H8.063q.094.797.516 1.5zm3.422-6q-.75 0-1.43.258t-1.195.727h5.25q-.516-.469-1.195-.727T12 8.016zM8.578 9.984q-.422.703-.516 1.5h7.875q-.094-.797-.516-1.5H8.577zM18.984 3H5.015q-.844 0-1.43.586t-.586 1.43v13.969q0 .844.586 1.43t1.43.586h13.969q.844 0 1.43-.586t.586-1.43V5.016q0-.844-.586-1.43T18.984 3zM12 18q-1.641 0-3-.82T6.82 15 6 12t.82-3T9 6.82 12 6t3 .82T17.18 9t.82 3-.82 3T15 17.18 12 18z"/></svg>
